X: 1
T: Cahiramee
M: 9/8
L: 1/8
R: slip jig
K: Gmaj
D|D2 G3 A B3 | A2 A3 B c3 | BcB B2A G3 | ABA A2G F2 D |
D2 G3 A B3 | A2 A3 B c3 | ded d2c B2G | ABA A2F G2z ||
B2 d3 d d3 | e2 e3 f g3 | d2 d3 c B2G | ABA A2G F2D |
B2 d3 d d3 | e2 e3 f g3 | ded d2c B2G | ABA A2F G2 ||
